X:1
T:The Greenbrier Shore (2)
M:3/4
L:1/4
K:C
 A2- A/2A/2| G D D| C A,3/2 A,/2| C D D| D3| z2 A/2A/2| c A G| A d2-|\
 d2 A/2A/2| G E G3/4 G/4| A3| z2 A| c A G| A d2-| d2 A| G F G| A3|\
 z2 A/2A/2| G D D| C A, A,| C D E| D3|
